img/benefits/building.svg

<svg width="80" height="80" fill="none" xmlns="http://www.w3.org/2000/svg"><defs><clipPath id="a"><path fill="#fff" fill-opacity="0" d="M0 0h80v80H0z"/></clipPath></defs><path fill="none" d="M0 0h80v80H0z"/><g clip-path="url(#a)" fill="#D4C17F"><path d="M57.33 74.66H20c-.74 0-1.34.6-1.34 1.34v2.66c0 .74.6 1.34 1.34 1.34.73 0 1.33-.6 1.33-1.34v-1.33h36a1.336 1.336 0 0 0 0-2.67ZM29.33 33.33c0 .73.6 1.33 1.33 1.33H36c.73 0 1.33-.6 1.33-1.33v-8c0-.74-.6-1.33-1.33-1.33h-5.34c-.73 0-1.33.59-1.33 1.33v8ZM32 26.66h2.66V32H32v-5.34ZM17.33 16h-16C.59 16 0 16.59 0 17.33V44a1.33 1.33 0 1 0 2.66 0V18.66h14.67a1.33 1.33 0 1 0 0-2.66ZM64 65.33c0 .73.59 1.33 1.33 1.33h5.33c.74 0 1.33-.6 1.33-1.33v-8c0-.74-.59-1.33-1.33-1.33h-5.33c-.74 0-1.33.59-1.33 1.33v8Zm2.66-6.67h2.67V64h-2.67v-5.34ZM6.66 48C.07 48 0 65.16 0 65.33c0 3.22 2.29 5.91 5.33 6.53v6.8c0 .74.6 1.34 1.33 1.34.74 0 1.33-.6 1.33-1.34v-6.8c3.04-.62 5.34-3.31 5.34-6.53 0-.17-.08-17.33-6.67-17.33Zm0 21.33c-2.2 0-4-1.8-4-4 0-6.64 1.79-14.67 4-14.67 2.22 0 4 8.03 4 14.67 0 2.2-1.79 4-4 4ZM14.66 40H9.33C8.59 40 8 40.59 8 41.33V44a1.33 1.33 0 1 0 2.66 0v-1.34h2.67v6.67a1.33 1.33 0 1 0 2.66 0v-8C16 40.59 15.4 40 14.66 40ZM65.33 34.66h5.33c.74 0 1.33-.6 1.33-1.33v-8c0-.74-.59-1.33-1.33-1.33h-5.33c-.74 0-1.33.59-1.33 1.33v8c0 .73.59 1.33 1.33 1.33Zm1.33-8h2.67V32h-2.67v-5.34Z"/><path d="M14.66 24H9.33C8.59 24 8 24.59 8 25.33v8c0 .73.59 1.33 1.33 1.33h5.33c.74 0 1.33-.6 1.33-1.33v-8C16 24.59 15.4 24 14.66 24Zm-1.33 8h-2.67v-5.34h2.67V32ZM42.66 33.33c0 .73.6 1.33 1.34 1.33h5.33c.73 0 1.33-.6 1.33-1.33v-8c0-.74-.6-1.33-1.33-1.33H44c-.74 0-1.34.59-1.34 1.33v8Zm2.67-6.67H48V32h-2.67v-5.34ZM78.66 16h-16a1.33 1.33 0 1 0 0 2.66h14.67v53.58a3.92 3.92 0 0 0-2.02-.18 5.293 5.293 0 0 0-4.65-2.73c-1.98 0-3.73 1.07-4.65 2.73-.22-.05-.45-.06-.68-.06a3.999 3.999 0 1 0 0 8H76c2.2 0 4-1.8 4-4V17.33c0-.74-.6-1.33-1.34-1.33ZM76 77.33H65.33c-.74 0-1.33-.6-1.33-1.33 0-.74.59-1.34 1.33-1.34.25 0 .5.08.72.22.37.23.82.28 1.23.11.4-.16.7-.51.79-.93A2.643 2.643 0 0 1 70.66 72c1.24 0 2.31.84 2.59 2.06.1.42.4.77.8.93.4.17.86.12 1.22-.11.87-.56 2.06.12 2.06 1.12 0 .73-.6 1.33-1.33 1.33ZM44 18.66h5.33c.73 0 1.33-.6 1.33-1.33v-8c0-.74-.6-1.33-1.33-1.33H44c-.74 0-1.34.59-1.34 1.33v8c0 .73.6 1.33 1.34 1.33Zm1.33-8H48V16h-2.67v-5.34ZM42.66 49.33c0 .73.6 1.33 1.34 1.33h5.33c.73 0 1.33-.6 1.33-1.33v-8c0-.74-.6-1.33-1.33-1.33H44c-.74 0-1.34.59-1.34 1.33v8Zm2.67-6.67H48V48h-2.67v-5.34ZM30.66 18.66H36c.73 0 1.33-.6 1.33-1.33v-8c0-.74-.6-1.33-1.33-1.33h-5.34c-.73 0-1.33.59-1.33 1.33v8c0 .73.6 1.33 1.33 1.33Zm1.34-8h2.66V16H32v-5.34ZM39.05 64.38c-.24.26-.39.6-.39.95s.15.69.39.95c.25.24.6.38.95.38.34 0 .69-.14.94-.38.24-.26.39-.6.39-.95s-.15-.69-.39-.95c-.51-.49-1.38-.49-1.89 0ZM29.33 49.33c0 .73.6 1.33 1.33 1.33H36c.73 0 1.33-.6 1.33-1.33v-8c0-.74-.6-1.33-1.33-1.33h-5.34c-.73 0-1.33.59-1.33 1.33v8ZM32 42.66h2.66V48H32v-5.34Z"/><path d="M26.66 57.33c0 .73.6 1.33 1.34 1.33h4v12c0 .74.59 1.33 1.33 1.33.73 0 1.33-.59 1.33-1.33v-12h10.67v12c0 .74.6 1.33 1.33 1.33.74 0 1.33-.59 1.33-1.33v-12h4c.74 0 1.34-.6 1.34-1.33 0-.74-.6-1.33-1.34-1.33H28c-.74 0-1.34.59-1.34 1.33ZM64 49.33c0 .73.59 1.33 1.33 1.33h5.33c.74 0 1.33-.6 1.33-1.33v-8c0-.74-.59-1.33-1.33-1.33h-5.33c-.74 0-1.33.59-1.33 1.33v8Zm2.66-6.67h2.67V48h-2.67v-5.34Z"/><path d="M57.33 0H22.66c-.73 0-1.33.59-1.33 1.33v69.33c0 .74.6 1.33 1.33 1.33.74 0 1.34-.59 1.34-1.33v-68h32v68c0 .74.59 1.33 1.33 1.33.73 0 1.33-.59 1.33-1.33V1.33c0-.74-.6-1.33-1.33-1.33Z"/></g></svg>

<svg width="80.000000" height="80.000000" viewBox="0 0 80 80" fill="none" xmlns="http://www.w3.org/2000/svg" xmlns:xlink="http://www.w3.org/1999/xlink">
	<desc>
			Created with Pixso.
	</desc>
	<defs>
		<clipPath id="clip3_18">
			<rect width="80.000000" height="80.000000" fill="white" fill-opacity="0"/>
		</clipPath>
	</defs>
	<rect width="80.000000" height="80.000000" fill="#FFFFFF" fill-opacity="0"/>
	<g clip-path="url(#clip3_18)">
		<path d="M57.33 74.66L20 74.66C19.26 74.66 18.66 75.26 18.66 76L18.66 78.66C18.66 79.4 19.26 80 20 80C20.73 80 21.33 79.4 21.33 78.66L21.33 77.33L57.33 77.33C58.06 77.33 58.66 76.73 58.66 76C58.66 75.26 58.06 74.66 57.33 74.66Z" fill="#D4C17F" fill-opacity="1.000000" fill-rule="nonzero"/>
		<path d="M29.33 33.33C29.33 34.06 29.93 34.66 30.66 34.66L36 34.66C36.73 34.66 37.33 34.06 37.33 33.33L37.33 25.33C37.33 24.59 36.73 24 36 24L30.66 24C29.93 24 29.33 24.59 29.33 25.33L29.33 33.33L29.33 33.33ZM32 26.66L34.66 26.66L34.66 32L32 32L32 26.66Z" fill="#D4C17F" fill-opacity="1.000000" fill-rule="nonzero"/>
		<path d="M17.33 16L1.33 16C0.59 16 0 16.59 0 17.33L0 44C0 44.73 0.59 45.33 1.33 45.33C2.06 45.33 2.66 44.73 2.66 44L2.66 18.66L17.33 18.66C18.06 18.66 18.66 18.06 18.66 17.33C18.66 16.59 18.06 16 17.33 16Z" fill="#D4C17F" fill-opacity="1.000000" fill-rule="nonzero"/>
		<path d="M64 65.33C64 66.06 64.59 66.66 65.33 66.66L70.66 66.66C71.4 66.66 71.99 66.06 71.99 65.33L71.99 57.33C71.99 56.59 71.4 56 70.66 56L65.33 56C64.59 56 64 56.59 64 57.33L64 65.33ZM66.66 58.66L69.33 58.66L69.33 64L66.66 64L66.66 58.66Z" fill="#D4C17F" fill-opacity="1.000000" fill-rule="nonzero"/>
		<path d="M6.66 48C0.07 48 0 65.16 0 65.33C0 68.55 2.29 71.24 5.33 71.86L5.33 78.66C5.33 79.4 5.93 80 6.66 80C7.4 80 7.99 79.4 7.99 78.66L7.99 71.86C11.03 71.24 13.33 68.55 13.33 65.33C13.33 65.16 13.25 48 6.66 48ZM6.66 69.33C4.46 69.33 2.66 67.53 2.66 65.33C2.66 58.69 4.45 50.66 6.66 50.66C8.88 50.66 10.66 58.69 10.66 65.33C10.66 67.53 8.87 69.33 6.66 69.33Z" fill="#D4C17F" fill-opacity="1.000000" fill-rule="nonzero"/>
		<path d="M14.66 40L9.33 40C8.59 40 8 40.59 8 41.33L8 44C8 44.73 8.59 45.33 9.33 45.33C10.06 45.33 10.66 44.73 10.66 44L10.66 42.66L13.33 42.66L13.33 49.33C13.33 50.06 13.93 50.66 14.66 50.66C15.4 50.66 15.99 50.06 15.99 49.33L15.99 41.33C16 40.59 15.4 40 14.66 40Z" fill="#D4C17F" fill-opacity="1.000000" fill-rule="nonzero"/>
		<path d="M65.33 34.66L70.66 34.66C71.4 34.66 71.99 34.06 71.99 33.33L71.99 25.33C71.99 24.59 71.4 24 70.66 24L65.33 24C64.59 24 64 24.59 64 25.33L64 33.33C64 34.06 64.59 34.66 65.33 34.66ZM66.66 26.66L69.33 26.66L69.33 32L66.66 32L66.66 26.66Z" fill="#D4C17F" fill-opacity="1.000000" fill-rule="nonzero"/>
		<path d="M14.66 24L9.33 24C8.59 24 8 24.59 8 25.33L8 33.33C8 34.06 8.59 34.66 9.33 34.66L14.66 34.66C15.4 34.66 15.99 34.06 15.99 33.33L15.99 25.33C16 24.59 15.4 24 14.66 24ZM13.33 32L10.66 32L10.66 26.66L13.33 26.66L13.33 32L13.33 32Z" fill="#D4C17F" fill-opacity="1.000000" fill-rule="nonzero"/>
		<path d="M42.66 33.33C42.66 34.06 43.26 34.66 44 34.66L49.33 34.66C50.06 34.66 50.66 34.06 50.66 33.33L50.66 25.33C50.66 24.59 50.06 24 49.33 24L44 24C43.26 24 42.66 24.59 42.66 25.33L42.66 33.33ZM45.33 26.66L48 26.66L48 32L45.33 32L45.33 26.66Z" fill="#D4C17F" fill-opacity="1.000000" fill-rule="nonzero"/>
		<path d="M78.66 16L62.66 16C61.93 16 61.33 16.59 61.33 17.33C61.33 18.06 61.93 18.66 62.66 18.66L77.33 18.66L77.33 72.24C76.91 72.09 76.47 72 76 72C75.76 72 75.54 72.01 75.31 72.06C74.39 70.4 72.64 69.33 70.66 69.33C68.68 69.33 66.93 70.4 66.01 72.06C65.79 72.01 65.56 72 65.33 72C63.12 72 61.33 73.79 61.33 76C61.33 78.2 63.12 80 65.33 80L76 80C78.2 80 80 78.2 80 76L80 17.33C80 16.59 79.4 16 78.66 16ZM76 77.33L65.33 77.33C64.59 77.33 64 76.73 64 76C64 75.26 64.59 74.66 65.33 74.66C65.58 74.66 65.83 74.74 66.05 74.88C66.42 75.11 66.87 75.16 67.28 74.99C67.68 74.83 67.98 74.48 68.07 74.06C68.35 72.84 69.42 72 70.66 72C71.9 72 72.97 72.84 73.25 74.06C73.35 74.48 73.65 74.83 74.05 74.99C74.45 75.16 74.91 75.11 75.27 74.88C76.14 74.32 77.33 75 77.33 76C77.33 76.73 76.73 77.33 76 77.33Z" fill="#D4C17F" fill-opacity="1.000000" fill-rule="nonzero"/>
		<path d="M44 18.66L49.33 18.66C50.06 18.66 50.66 18.06 50.66 17.33L50.66 9.33C50.66 8.59 50.06 8 49.33 8L44 8C43.26 8 42.66 8.59 42.66 9.33L42.66 17.33C42.66 18.06 43.26 18.66 44 18.66ZM45.33 10.66L48 10.66L48 16L45.33 16L45.33 10.66Z" fill="#D4C17F" fill-opacity="1.000000" fill-rule="nonzero"/>
		<path d="M42.66 49.33C42.66 50.06 43.26 50.66 44 50.66L49.33 50.66C50.06 50.66 50.66 50.06 50.66 49.33L50.66 41.33C50.66 40.59 50.06 40 49.33 40L44 40C43.26 40 42.66 40.59 42.66 41.33L42.66 49.33ZM45.33 42.66L48 42.66L48 48L45.33 48L45.33 42.66Z" fill="#D4C17F" fill-opacity="1.000000" fill-rule="nonzero"/>
		<path d="M30.66 18.66L36 18.66C36.73 18.66 37.33 18.06 37.33 17.33L37.33 9.33C37.33 8.59 36.73 8 36 8L30.66 8C29.93 8 29.33 8.59 29.33 9.33L29.33 17.33C29.33 18.06 29.93 18.66 30.66 18.66ZM32 10.66L34.66 10.66L34.66 16L32 16L32 10.66Z" fill="#D4C17F" fill-opacity="1.000000" fill-rule="nonzero"/>
		<path d="M39.05 64.38C38.81 64.64 38.66 64.98 38.66 65.33C38.66 65.68 38.81 66.02 39.05 66.28C39.3 66.52 39.65 66.66 40 66.66C40.34 66.66 40.69 66.52 40.94 66.28C41.18 66.02 41.33 65.68 41.33 65.33C41.33 64.98 41.18 64.64 40.94 64.38C40.43 63.89 39.56 63.89 39.05 64.38Z" fill="#D4C17F" fill-opacity="1.000000" fill-rule="nonzero"/>
		<path d="M29.33 49.33C29.33 50.06 29.93 50.66 30.66 50.66L36 50.66C36.73 50.66 37.33 50.06 37.33 49.33L37.33 41.33C37.33 40.59 36.73 40 36 40L30.66 40C29.93 40 29.33 40.59 29.33 41.33L29.33 49.33L29.33 49.33ZM32 42.66L34.66 42.66L34.66 48L32 48L32 42.66Z" fill="#D4C17F" fill-opacity="1.000000" fill-rule="nonzero"/>
		<path d="M26.66 57.33C26.66 58.06 27.26 58.66 28 58.66L32 58.66L32 70.66C32 71.4 32.59 71.99 33.33 71.99C34.06 71.99 34.66 71.4 34.66 70.66L34.66 58.66L45.33 58.66L45.33 70.66C45.33 71.4 45.93 71.99 46.66 71.99C47.4 71.99 47.99 71.4 47.99 70.66L47.99 58.66L51.99 58.66C52.73 58.66 53.33 58.06 53.33 57.33C53.33 56.59 52.73 56 51.99 56L28 56C27.26 56 26.66 56.59 26.66 57.33Z" fill="#D4C17F" fill-opacity="1.000000" fill-rule="nonzero"/>
		<path d="M64 49.33C64 50.06 64.59 50.66 65.33 50.66L70.66 50.66C71.4 50.66 71.99 50.06 71.99 49.33L71.99 41.33C71.99 40.59 71.4 40 70.66 40L65.33 40C64.59 40 64 40.59 64 41.33L64 49.33ZM66.66 42.66L69.33 42.66L69.33 48L66.66 48L66.66 42.66Z" fill="#D4C17F" fill-opacity="1.000000" fill-rule="nonzero"/>
		<path d="M57.33 0L22.66 0C21.93 0 21.33 0.59 21.33 1.33L21.33 70.66C21.33 71.4 21.93 71.99 22.66 71.99C23.4 71.99 24 71.4 24 70.66L24 2.66L56 2.66L56 70.66C56 71.4 56.59 71.99 57.33 71.99C58.06 71.99 58.66 71.4 58.66 70.66L58.66 1.33C58.66 0.59 58.06 0 57.33 0Z" fill="#D4C17F" fill-opacity="1.000000" fill-rule="nonzero"/>
	</g>
</svg>
